symbols/web/bug_report/materialsymbolsoutlined/bug_report_wght200_20px.svg

<svg xmlns="http://www.w3.org/2000/svg" height="20" width="20"><path d="M10 16.667q-1.146 0-2.104-.552-.958-.553-1.542-1.553H4.062v-.916H6q-.167-.584-.188-1.177-.02-.594-.02-1.198h-1.73v-.917h1.73q0-.604-.011-1.208-.01-.604.219-1.167H4.062v-.917h2.292q.313-.541.781-.958.469-.416 1.011-.687L6.667 3.958l.583-.583 1.729 1.708q.5-.166 1.021-.166.521 0 1.042.166l1.708-1.708.625.604-1.479 1.459q.542.27.989.687.448.417.74.937h2.313v.917H14q.208.563.198 1.156-.01.594-.01 1.219h1.75v.917h-1.75q0 .604-.011 1.198-.01.593-.177 1.177h1.938v.916h-2.334q-.562 1-1.521 1.553-.958.552-2.083.552Zm0-.917q1.354 0 2.312-.958.959-.959.959-2.334V9.167q0-1.355-.959-2.313-.958-.958-2.312-.958-1.375 0-2.333.958-.959.958-.959 2.313v3.291q0 1.375.959 2.334.958.958 2.333.958Zm-1.417-2.833h2.834V12H8.583Zm0-3.292h2.834v-.917H8.583ZM10 10.812Z"/></svg>

<svg xmlns="http://www.w3.org/2000/svg" height="20" width="20"><path d="M10 16.667Q8.854 16.667 7.896 16.115Q6.938 15.562 6.354 14.562H4.062V13.646H6Q5.833 13.062 5.812 12.469Q5.792 11.875 5.792 11.271H4.062V10.354H5.792Q5.792 9.75 5.781 9.146Q5.771 8.542 6 7.979H4.062V7.062H6.354Q6.667 6.521 7.135 6.104Q7.604 5.688 8.146 5.417L6.667 3.958L7.25 3.375L8.979 5.083Q9.479 4.917 10 4.917Q10.521 4.917 11.042 5.083L12.75 3.375L13.375 3.979L11.896 5.438Q12.438 5.708 12.885 6.125Q13.333 6.542 13.625 7.062H15.938V7.979H14Q14.208 8.542 14.198 9.135Q14.188 9.729 14.188 10.354H15.938V11.271H14.188Q14.188 11.875 14.177 12.469Q14.167 13.062 14 13.646H15.938V14.562H13.604Q13.042 15.562 12.083 16.115Q11.125 16.667 10 16.667ZM10 15.75Q11.354 15.75 12.312 14.792Q13.271 13.833 13.271 12.458V9.167Q13.271 7.812 12.312 6.854Q11.354 5.896 10 5.896Q8.625 5.896 7.667 6.854Q6.708 7.812 6.708 9.167V12.458Q6.708 13.833 7.667 14.792Q8.625 15.75 10 15.75ZM8.583 12.917H11.417V12H8.583ZM8.583 9.625H11.417V8.708H8.583ZM10 10.812Q10 10.812 10 10.812Q10 10.812 10 10.812Q10 10.812 10 10.812Q10 10.812 10 10.812Q10 10.812 10 10.812Q10 10.812 10 10.812Q10 10.812 10 10.812Q10 10.812 10 10.812Z"/></svg>
